X:1
T:When placid Night diffuses o'er the Plain
T:When placid Night diffuses o'er the Plain
T:Mazzinghi
C:Mazzinghi
%%score ( 1 2 )
L:1/8
Q:1/4=66
M:2/4
K:F
V:1 treble 
V:2 treble 
V:1
"^Larghetto" A2 (c/B/) (A/G/) | c2 z f | ec Bd | c2 z2 | G2{A} (G/F/) (G/B/) | AF z2 | %6
w: When pla- * cid *|Night dif-|fu- ses o'er the|Plain|Her si- * lent *|Sha- dows|
 GG{A} (G/F/) (G/A/) | F2 z2 | A2 GG | B3 A | dc EF | G2 z2 | G2 (G/F/) (E/F/) |{F} E2 z c | %14
w: and her dew- * y *|rain|when the spent|Bird of|sad- ness sinks to|rest|And all * is *|calm ex-|
 c>d (c/B/) (A/B/) |{B} A2 z2 | d2 =BG | c2 z A | G>c (e/d/) (c/=B/) | c2 z2 | A2 (c/_B/) (A/G/) | %21
w: cept the Lo- * vers *|breast|And all is|calm ex-|cept the Lo- * vers *|breast|With fon- * der *|
 cA z2 | ec Bd | c2 z2 | G2 (G/F/) (G/B/) | A2 z F | GG{A} (G/F/) (G/A/) | F2 z2 | (fe) d^c | %29
w: fer- vour|more ex- press- ive|woe|The faith- * ful *|tones of|tend- rest Pas- * sion *|flow|The * faith- ful|
 !fermata!d3 =c | cA{A} (G/F/) (G/A/) | F2 z2 | F2 |] %33
w: tones of|tend- rest Pas- * sion *|flow.||
V:2
 x4 | x4 | x4 | x4 | x4 | x4 | x4 | x4 | x4 | x4 | x4 | x4 | x4 | x4 | x4 | x4 | x4 | x4 | x4 | %19
 x4 | x4 | x2 z f | x4 | x4 | x4 | x4 | x4 | x4 | x4 | x4 | x4 | x2 A2 | x2 |] %33

